X: 16
T:Donnybrook Fair
T:Joy of My Life, The
M:6/8
L:1/8
R:Double Jig
K:G
D[|:GFG AGA|Bee dBA|~B3 GAB|AGE GED|!
GFG AGA|Bge dBA|~B3 GAB|1AGF G2D:|2AGF GBd|]!
gfe fed|ege dBA|Bee dBA|Bee e2f|!
gfe fed|ege dBA|~B3 GAB|AGF GBd||!
gfe fed|ege dBA|Bee dBA|Bee e2f|!
gfg aga|bge dBA|~B3 GAB|AGF G2D|]!
